modules/zondicons/icons/arrow-outline-left.svg

<?xml version="1.0" encoding="UTF-8" standalone="no"?>
<svg width="20px" height="20px" viewBox="0 0 20 20" version="1.1" xmlns="http://www.w3.org/2000/svg" xmlns:xlink="http://www.w3.org/1999/xlink">
    <!-- Generator: Sketch 3.7.2 (28276) - http://www.bohemiancoding.com/sketch -->
    <title>arrow-outline-left</title>
    <desc>Created with Sketch.</desc>
    <defs></defs>
    <g id="Page-1" stroke="none" stroke-width="1" fill="none" fill-rule="evenodd">
        <g id="arrow-outline-left" fill="#000000">
            <path d="M0,10 C0,15.5228475 4.4771525,20 10,20 C15.5228475,20 20,15.5228475 20,10 C20,4.4771525 15.5228475,1.01453063e-15 10,0 C4.4771525,-1.01453063e-15 3.55271368e-15,4.4771525 0,10 L0,10 Z M2,10 C2,14.418278 5.581722,18 10,18 C14.418278,18 18,14.418278 18,10 C18,5.581722 14.418278,2 10,2 C5.581722,2 2,5.581722 2,10 L2,10 Z M10,8 L10,12 L15,12 L15,8 L10,8 L10,8 Z M5,10 L10,15 L10,5 L5,10 L5,10 Z" id="Combined-Shape"></path>
        </g>
    </g>
</svg>

<svg width="20" height="20" viewBox="0 0 20 20" xmlns="http://www.w3.org/2000/svg"><path d="M0 10c0 5.523 4.477 10 10 10s10-4.477 10-10S15.523 0 10 0 0 4.477 0 10zm2 0a8 8 0 1 0 16 0 8 8 0 0 0-16 0zm8-2v4h5V8h-5zm-5 2l5 5V5l-5 5z" fill="#000" fill-rule="evenodd"/></svg>
